src/assets/calendar-icon.svg

<svg width="16" height="16" viewBox="0 0 16 16" fill="none" xmlns="http://www.w3.org/2000/svg">
<g clip-path="url(#clip0_3279_20947)">
<path d="M0.428571 6H15.5714C15.8071 6 16 6.16875 16 6.375V14.5C16 15.3281 15.2321 16 14.2857 16H1.71429C0.767857 16 0 15.3281 0 14.5V6.375C0 6.16875 0.192857 6 0.428571 6ZM16 4.625V3.5C16 2.67188 15.2321 2 14.2857 2H12.5714V0.375C12.5714 0.16875 12.3786 0 12.1429 0H10.7143C10.4786 0 10.2857 0.16875 10.2857 0.375V2H5.71429V0.375C5.71429 0.16875 5.52143 0 5.28571 0H3.85714C3.62143 0 3.42857 0.16875 3.42857 0.375V2H1.71429C0.767857 2 0 2.67188 0 3.5V4.625C0 4.83125 0.192857 5 0.428571 5H15.5714C15.8071 5 16 4.83125 16 4.625Z" fill="#F2C247"/>
</g>
<defs>
<clipPath id="clip0_3279_20947">
<rect width="16" height="16" fill="white"/>
</clipPath>
</defs>
</svg>

<svg xmlns="http://www.w3.org/2000/svg" width="16" height="16" fill="none" viewBox="0 0 16 16">
    <g clip-path="url(#a)">
        <path fill="#F2C247" d="M.429 6H15.57c.236 0 .429.169.429.375V14.5c0 .828-.768 1.5-1.714 1.5H1.714C.768 16 0 15.328 0 14.5V6.375C0 6.169.193 6 .429 6ZM16 4.625V3.5c0-.828-.768-1.5-1.714-1.5H12.57V.375c0-.206-.192-.375-.428-.375h-1.429c-.235 0-.428.169-.428.375V2H5.714V.375C5.714.169 5.521 0 5.286 0H3.857c-.236 0-.428.169-.428.375V2H1.714C.768 2 0 2.672 0 3.5v1.125C0 4.831.193 5 .429 5H15.57c.236 0 .429-.169.429-.375Z"/>
    </g>
    <defs>
        <clipPath id="a">
            <path fill="#fff" d="M0 0h16v16H0z"/>
        </clipPath>
    </defs>
</svg>
